X: 1
T: John Maloney's
M: 6/8
L: 1/8
R: jig
K: Ador
|:B| cBc AAG | EcB cde | dcA AGE | Ede ged |
cBc AAG | EcB cde | dcA AGE | EDD D2 :|
 |:d|egf ged | cAB c2d | eaa age | ed^c deg |
egf ged | cAB cde | dcA AGE | EDD D2 :|
